X:1
T:B b Major Oliver Holden, 1806
T:Robert Robinson, 1758 87. 87. 87. 87. 
T:Fount
T:Transcribed from The Psalmodist's Assistant, 1806.
%%score [ 1 2 3 4 ]
L:1/8
M:2/2
K:Bb
V:1 treble nm="Treble" snm="Tr."
V:2 treble nm="Counter" snm="C."
V:3 treble-8 nm="Tenor" snm="T."
V:4 bass nm="Bass" snm="B."
V:1
"^1. {" d2 c2 d2 B2 | B2 Bc d2 d2 || A2 F2 A2 B2 | GA B2 A4 || d2 c2 d2 B2 | B2 Bc d2 d2 || %6
w: Come, thou fount of|eve- ry * bles- sing,|tune my heart to|sing * thy grace!|Streams of mer- cy,|ne- ver * cea- sing,|
w: Teach me some me-|lo- dious * son- net,|Sung by fla- ming|tongues * a- bove;|Praise the mount, I'm|fixed up- * on it,|
 B2 F2 B2 ce | d4 c4 |"^}" B8 :| %9
w: Call for songs of *|lou- dest|praise.|
w: Mount of God's un- *|chan- ging|love.|
V:2
"^2. {" F2 F2 F2 F2 | F2 F2 F2 F2 || F2 F2 F2 F2 | =E2 E2 F4 || F2 F2 F2 F2 | F2 F2 F2 F2 || %6
w: Here I raise my|Eb- e- ne- zer.|Hi- ther by thine|help I've come;|And I hope, by|thy good plea- sure,|
w: Je- sus sought me,|when a stran- ger,|Wan- dering from the|fold of God;|He, to res- cue|me from dan- ger,|
 F2 F2 F2 G2 | F4 E4 |"^}" D8 :| %9
w: Safe- ly to ar-|rive at|home.|
w: In- ter- posed with|pre- cious|blood.|
V:3
"^3. {" B2 A2 B2 d2 | f2 dc B2 B2 || c2 B2 c2 F2 | BA G2 F4 || B2 A2 B2 d2 | f2 dc B2 B2 || %6
w: O! to grace, how|great a * deb- tor|Dai- ly I'm con-|strained * to be!|Let that grace, now|like a * fet- ter,|
w: Prone to wan- der,|Lord, I * feel it,|Prone to leave the|God * I love~—|Here's mine heart, O|take and * seal it,|
 d2 c2 d2 ec | B4 A4 |"^}" B8 :| %9
w: Bind my wan- dering *|heart to|thee.|
w: Seal it for thy *|courts a-|bove.|
V:4
 B,,2 F,2 D,2 B,,2 | D,2 F,2 B,,2 B,,2 || E,2 D,2 C,2 B,,2 | C,2 C,2 F,4 || B,,2 F,2 D,2 B,,2 | %5
 D,2 F,2 B,,2 B,,2 || B,2 A,2 B,2 E,2 | F,4 F,4 | B,,8 :| %9

